public/images/logo/react.svg

<svg width="18" height="18" viewBox="0 0 18 18" fill="none" xmlns="http://www.w3.org/2000/svg">
<g clip-path="url(#clip0)">
<path d="M17.9166 8.92579C17.9166 7.73062 16.4344 6.59798 14.1621 5.89559C14.6864 3.55675 14.4534 1.69598 13.4264 1.10024C13.1897 0.960496 12.913 0.894302 12.6107 0.894302V1.71437C12.7782 1.71437 12.913 1.74746 13.0259 1.80998C13.5211 2.09682 13.736 3.18901 13.5685 4.59379C13.5284 4.93946 13.4629 5.30353 13.3827 5.67495C12.669 5.49843 11.8897 5.36237 11.0703 5.27411C10.5787 4.59379 10.0689 3.97598 9.5554 3.4354C10.7426 2.32114 11.8569 1.71069 12.6144 1.71069V0.890625C11.6129 0.890625 10.3019 1.6114 8.97639 2.86172C7.65084 1.61875 6.33986 0.905335 5.33841 0.905335V1.7254C6.09223 1.7254 7.2102 2.33217 8.39737 3.43908C7.88754 3.97966 7.37772 4.59379 6.89338 5.27411C6.07038 5.36237 5.29107 5.49843 4.57731 5.67862C4.49356 5.31088 4.43165 4.95417 4.38795 4.61217C4.21679 3.2074 4.42801 2.11521 4.91962 1.82469C5.02887 1.7585 5.1709 1.72908 5.33841 1.72908V0.909012C5.03251 0.909012 4.75575 0.975206 4.5154 1.11495C3.49211 1.71069 3.26269 3.56779 3.79072 5.89927C1.52564 6.60533 0.0507812 7.7343 0.0507812 8.92579C0.0507812 10.1209 1.53292 11.2536 3.80529 11.956C3.2809 14.2948 3.51396 16.1556 4.5409 16.7513C4.7776 16.8911 5.05436 16.9573 5.36026 16.9573C6.36171 16.9573 7.67269 16.2365 8.99824 14.9862C10.3238 16.2291 11.6348 16.9426 12.6362 16.9426C12.9421 16.9426 13.2189 16.8764 13.4592 16.7366C14.4825 16.1409 14.7119 14.2838 14.1839 11.9523C16.4417 11.2499 17.9166 10.1173 17.9166 8.92579ZM13.1752 6.47295C13.0404 6.94733 12.8729 7.43643 12.6836 7.92553C12.5342 7.63133 12.3777 7.33714 12.2065 7.04295C12.039 6.74875 11.8605 6.46192 11.6821 6.18243C12.1992 6.25966 12.6981 6.35527 13.1752 6.47295ZM11.5073 10.3894C11.2233 10.8858 10.9319 11.3566 10.6297 11.7942C10.0871 11.842 9.5372 11.8677 8.98367 11.8677C8.43379 11.8677 7.8839 11.842 7.34494 11.7979C7.04269 11.3602 6.74772 10.8932 6.46367 10.4004C6.18691 9.91869 5.93564 9.42959 5.70621 8.93682C5.93199 8.44404 6.18691 7.95127 6.46003 7.46953C6.74408 6.97308 7.0354 6.50237 7.33766 6.06475C7.88026 6.01695 8.43014 5.99121 8.98367 5.99121C9.53356 5.99121 10.0834 6.01695 10.6224 6.06108C10.9247 6.49869 11.2196 6.96572 11.5037 7.4585C11.7804 7.94024 12.0317 8.42933 12.2611 8.92211C12.0317 9.41488 11.7804 9.90766 11.5073 10.3894ZM12.6836 9.91133C12.8802 10.4041 13.0477 10.8969 13.1861 11.3749C12.709 11.4926 12.2065 11.5919 11.6858 11.6691C11.8642 11.386 12.0426 11.0955 12.2101 10.7976C12.3777 10.5034 12.5342 10.2055 12.6836 9.91133ZM8.99095 13.8351C8.65228 13.4821 8.31361 13.0886 7.97858 12.6584C8.30633 12.6731 8.64136 12.6841 8.98003 12.6841C9.32234 12.6841 9.66101 12.6768 9.9924 12.6584C9.66465 13.0886 9.32598 13.4821 8.99095 13.8351ZM6.28159 11.6691C5.76448 11.5919 5.26558 11.4963 4.78853 11.3786C4.92327 10.9042 5.09078 10.4151 5.28014 9.92604C5.42945 10.2202 5.58604 10.5144 5.7572 10.8086C5.92835 11.1028 6.10315 11.3897 6.28159 11.6691ZM8.97275 4.01643C9.31142 4.36946 9.65009 4.76295 9.98512 5.19321C9.65737 5.1785 9.32234 5.16746 8.98367 5.16746C8.64136 5.16746 8.30269 5.17482 7.9713 5.19321C8.29905 4.76295 8.63772 4.36946 8.97275 4.01643ZM6.27795 6.18243C6.09951 6.46559 5.92107 6.75611 5.75355 7.05398C5.58604 7.34817 5.42945 7.64237 5.28014 7.93656C5.0835 7.44379 4.91598 6.95101 4.7776 6.47295C5.25465 6.35895 5.7572 6.25966 6.27795 6.18243ZM2.98228 10.7866C1.69315 10.2313 0.85922 9.50314 0.85922 8.92579C0.85922 8.34843 1.69315 7.61662 2.98228 7.06501C3.29546 6.92895 3.63777 6.80759 3.99101 6.69359C4.19858 7.41437 4.47171 8.16456 4.81038 8.93314C4.47535 9.69804 4.20587 10.4446 4.00194 11.1617C3.64142 11.0477 3.29911 10.9226 2.98228 10.7866ZM4.94147 16.0416C4.44621 15.7548 4.23136 14.6626 4.39887 13.2578C4.43893 12.9121 4.50448 12.548 4.5846 12.1766C5.29835 12.3531 6.07766 12.4892 6.89702 12.5775C7.38864 13.2578 7.89847 13.8756 8.41194 14.4162C7.22477 15.5304 6.11043 16.1409 5.35298 16.1409C5.1891 16.1372 5.05072 16.1041 4.94147 16.0416ZM13.5794 13.2394C13.7505 14.6442 13.5393 15.7364 13.0477 16.0269C12.9385 16.0931 12.7964 16.1225 12.6289 16.1225C11.8751 16.1225 10.7571 15.5157 9.56997 14.4088C10.0798 13.8682 10.5896 13.2541 11.074 12.5738C11.897 12.4855 12.6763 12.3495 13.39 12.1693C13.4738 12.5407 13.5393 12.8974 13.5794 13.2394ZM14.9814 10.7866C14.6682 10.9226 14.3259 11.044 13.9727 11.158C13.7651 10.4372 13.492 9.68701 13.1533 8.91843C13.4884 8.15353 13.7578 7.40701 13.9618 6.68992C14.3223 6.80392 14.6646 6.92895 14.9851 7.06501C16.2742 7.6203 17.1081 8.34843 17.1081 8.92579C17.1045 9.50314 16.2705 10.2349 14.9814 10.7866Z" fill="currentColor"/>
<path d="M8.97867 10.6073C9.8978 10.6073 10.6429 9.85483 10.6429 8.92667C10.6429 7.99852 9.8978 7.24609 8.97867 7.24609C8.05955 7.24609 7.31445 7.99852 7.31445 8.92667C7.31445 9.85483 8.05955 10.6073 8.97867 10.6073Z" fill="currentColor"/>
</g>
<defs>
<clipPath id="clip0">
<rect width="18.9" height="17.1" fill="white" transform="translate(-0.449219 0.449219)"/>
</clipPath>
</defs>
</svg>

<svg width="18" height="18" fill="none" xmlns="http://www.w3.org/2000/svg"><g clip-path="url(#clip0)" fill="currentColor"><path d="M17.917 8.926c0-1.195-1.483-2.328-3.755-3.03.524-2.34.291-4.2-.736-4.796a1.584 1.584 0 00-.815-.206v.82c.167 0 .302.033.415.096.495.287.71 1.379.543 2.784-.04.345-.106.71-.186 1.08a17.488 17.488 0 00-2.313-.4 17.893 17.893 0 00-1.515-1.839c1.188-1.114 2.302-1.724 3.06-1.724V.89c-1.002 0-2.313.72-3.639 1.97C7.651 1.62 6.34.906 5.338.906v.82c.754 0 1.872.607 3.06 1.714-.51.54-1.02 1.155-1.505 1.835-.823.088-1.602.224-2.316.405a11.195 11.195 0 01-.189-1.067c-.171-1.405.04-2.497.532-2.787a.804.804 0 01.418-.096V.91c-.305 0-.582.066-.823.206-1.023.596-1.252 2.453-.724 4.784C1.526 6.605.05 7.734.05 8.926c0 1.195 1.482 2.328 3.754 3.03-.524 2.339-.291 4.2.736 4.795.237.14.513.206.82.206 1 0 2.312-.72 3.637-1.97 1.326 1.242 2.637 1.956 3.638 1.956.306 0 .583-.067.823-.206 1.024-.596 1.253-2.453.725-4.785 2.258-.702 3.733-1.835 3.733-3.026zm-4.742-2.453c-.135.474-.302.963-.491 1.453a19.958 19.958 0 00-1.002-1.743c.517.077 1.016.172 1.493.29zm-1.668 3.916c-.284.497-.575.968-.877 1.405a18.768 18.768 0 01-3.285.004 19.221 19.221 0 01-1.639-2.861 19.622 19.622 0 011.631-2.872 18.767 18.767 0 013.285-.004 19.236 19.236 0 011.639 2.861c-.23.493-.48.986-.754 1.467zm1.177-.478c.196.493.364.986.502 1.464-.477.118-.98.217-1.5.294a20.321 20.321 0 00.998-1.758zM8.99 13.835a15.122 15.122 0 01-1.012-1.177c.327.015.662.026 1.001.026.342 0 .681-.007 1.012-.026-.327.43-.666.824-1.001 1.177zM6.28 11.67a16.273 16.273 0 01-1.492-.29c.134-.475.302-.964.491-1.453.15.294.306.588.477.883.171.294.346.58.525.86zm2.692-7.653c.338.353.677.747 1.012 1.177a22.324 22.324 0 00-1.001-.026c-.343 0-.681.008-1.013.026.328-.43.667-.824 1.002-1.177zM6.278 6.182a20.36 20.36 0 00-.998 1.755 15.867 15.867 0 01-.502-1.464c.477-.114.98-.213 1.5-.29zm-3.296 4.605C1.693 10.23.86 9.503.86 8.926c0-.578.834-1.31 2.123-1.861.313-.136.656-.257 1.009-.371.208.72.48 1.47.82 2.24A17.524 17.524 0 004 11.161c-.36-.114-.702-.24-1.019-.375zm1.96 5.255c-.496-.287-.71-1.38-.543-2.784.04-.346.105-.71.186-1.081a17.5 17.5 0 002.312.4c.492.68 1.001 1.299 1.515 1.84C7.225 15.53 6.11 16.14 5.353 16.14a.863.863 0 01-.412-.1zm8.637-2.803c.171 1.405-.04 2.497-.531 2.788a.804.804 0 01-.42.095c-.753 0-1.87-.606-3.058-1.713.51-.54 1.02-1.155 1.504-1.835a16.858 16.858 0 002.316-.405c.084.372.15.728.19 1.07zm1.402-2.452c-.313.136-.655.257-1.008.371-.208-.72-.481-1.471-.82-2.24.335-.764.605-1.511.809-2.228.36.114.703.239 1.023.375 1.29.555 2.123 1.283 2.123 1.86-.003.578-.838 1.31-2.127 1.862z"/><path d="M8.979 10.607c.919 0 1.664-.752 1.664-1.68 0-.928-.745-1.68-1.664-1.68-.92 0-1.665.752-1.665 1.68 0 .928.746 1.68 1.665 1.68z"/></g><defs><clipPath id="clip0"><path fill="#fff" transform="translate(-.45 .45)" d="M0 0h18.9v17.1H0z"/></clipPath></defs></svg>
